;FLAVOR:Marlin
;TIME:296
;Filament used: 0.332058m
;Layer height: 0.4
;MINX:91.404
;MINY:91.404
;MINZ:0.3
;MAXX:108.596
;MAXY:108.595
;MAXZ:9.9
;TARGET_MACHINE.NAME:Wanhao Duplicator i3
;Generated with Cura_SteamEngine 5.9.1
M140 S100
M105
M190 S100
M104 S240
M105
M109 S240
M82 ;absolute extrusion mode
G21 ;metric values
 G90 ;absolute positioning
 M82 ;set extruder to absolute mode
 M107 ;start with the fan off
 G28 X0 Y0 ;move X/Y to min endstops
 G28 Z0 ;move Z to min endstops
 G1 Z15.0 F120 ;move the platform down 15mm
 G92 E0 ;zero the extruded length
 G1 F200 E6 ;extrude 6 mm of feed stock
 G92 E0 ;zero the extruded length again
 G1 F120 
 ;Put printing message on LCD screen
 M117 Printing...
G92 E0
G92 E0
G1 F1500 E-8
;LAYER_COUNT:25
;LAYER:0
M107
G0 F2571.4 X105.885 Y108.447 Z0.3
;TYPE:SKIRT
G1 F1500 E0
G1 X104.929 Y108.591 E0.04823
G1 X101.886 Y108.59 E0.20005
G1 X101.63 Y108.558 E0.21292
G1 X101.316 Y108.595 E0.22869
G1 X98.622 Y108.59 E0.3631
G1 X98.36 Y108.557 E0.37627
G1 X98.038 Y108.595 E0.39245
G1 X95.034 Y108.59 E0.54232
G1 X94.148 Y108.405 E0.58748
G1 X93.152 Y107.921 E0.64272
G1 X92.366 Y107.215 E0.69543
G1 X91.787 Y106.362 E0.74687
G1 X91.405 Y105.135 E0.81098
G1 X91.41 Y101.883 E0.97322
G1 X91.443 Y101.622 E0.98635
G1 X91.405 Y101.301 E1.00247
G1 X91.41 Y98.622 E1.13613
G1 X91.442 Y98.362 E1.1492
G1 X91.405 Y98.043 E1.16522
G1 X91.404 Y94.906 E1.32173
G1 X91.742 Y93.83 E1.378
G1 X92.099 Y93.144 E1.41658
G1 X92.928 Y92.18 E1.48001
G1 X94.115 Y91.553 E1.54698
G1 X95.069 Y91.409 E1.59512
G1 X98.041 Y91.404 E1.74339
G1 X98.374 Y91.443 E1.76012
G1 X98.699 Y91.405 E1.77644
G1 X101.378 Y91.41 E1.9101
G1 X101.64 Y91.443 E1.92327
G1 X101.962 Y91.405 E1.93945
G1 X104.966 Y91.41 E2.08932
G1 X105.852 Y91.595 E2.13448
G1 X106.848 Y92.079 E2.18972
G1 X107.634 Y92.785 E2.24243
G1 X108.213 Y93.638 E2.29387
G1 X108.595 Y94.865 E2.35798
G1 X108.59 Y98.117 E2.52022
G1 X108.558 Y98.377 E2.53329
G1 X108.595 Y98.699 E2.54946
G1 X108.59 Y101.378 E2.68312
G1 X108.558 Y101.638 E2.69619
G1 X108.595 Y101.957 E2.71221
G1 X108.596 Y105.094 E2.86872
G1 X108.258 Y106.17 E2.92498
G1 X107.901 Y106.856 E2.96357
G1 X107.072 Y107.82 E3.027
G1 X105.885 Y108.447 E3.09397
G0 F2571.4 X105.757 Y108.062
G1 F1500 X104.929 Y108.191 E3.13578
G1 X101.886 Y108.19 E3.28759
G1 X101.629 Y108.155 E3.30054
G1 X101.317 Y108.195 E3.31623
G1 X98.623 Y108.19 E3.45063
G1 X98.36 Y108.154 E3.46388
G1 X98.039 Y108.195 E3.48002
G1 X95.078 Y108.19 E3.62775
G1 X94.278 Y108.023 E3.66852
G1 X93.377 Y107.585 E3.7185
G1 X92.668 Y106.949 E3.76602
G1 X92.152 Y106.188 E3.81189
G1 X91.805 Y105.074 E3.8701
G1 X91.81 Y101.884 E4.02925
G1 X91.846 Y101.622 E4.04244
G1 X91.805 Y101.302 E4.05854
G1 X91.81 Y98.623 E4.1922
G1 X91.846 Y98.361 E4.20539
G1 X91.805 Y98.043 E4.22139
G1 X91.804 Y94.969 E4.37475
G1 X92.124 Y93.95 E4.42803
G1 X92.432 Y93.37 E4.4608
G1 X93.181 Y92.499 E4.51811
G1 X94.243 Y91.938 E4.57803
G1 X95.07 Y91.809 E4.61979
G1 X98.042 Y91.804 E4.76806
G1 X98.373 Y91.847 E4.78472
G1 X98.698 Y91.805 E4.80107
G1 X101.377 Y91.81 E4.93472
G1 X101.64 Y91.846 E4.94796
G1 X101.961 Y91.805 E4.96411
G1 X104.922 Y91.81 E5.11183
G1 X105.722 Y91.977 E5.15261
G1 X106.623 Y92.415 E5.20259
G1 X107.332 Y93.051 E5.25011
G1 X107.848 Y93.812 E5.29598
G1 X108.195 Y94.926 E5.35419
G1 X108.19 Y98.116 E5.51334
G1 X108.154 Y98.377 E5.52648
G1 X108.195 Y98.698 E5.54263
G1 X108.19 Y101.377 E5.67628
G1 X108.154 Y101.638 E5.68943
G1 X108.195 Y101.957 E5.70548
G1 X108.196 Y105.031 E5.85884
G1 X107.876 Y106.05 E5.91212
G1 X107.568 Y106.63 E5.94489
G1 X106.819 Y107.501 E6.0022
G1 X105.757 Y108.062 E6.06212
G0 F2571.4 X105.629 Y107.677
G1 F1500 X104.929 Y107.791 E6.0975
G1 X101.886 Y107.79 E6.24932
G1 X101.63 Y107.751 E6.26224
G1 X101.318 Y107.795 E6.27796
G1 X98.624 Y107.79 E6.41236
G1 X98.362 Y107.75 E6.42559
G1 X98.04 Y107.795 E6.44181
G1 X95.122 Y107.79 E6.58739
G1 X94.408 Y107.641 E6.62378
G1 X93.602 Y107.249 E6.66849
G1 X92.972 Y106.684 E6.71071
G1 X92.516 Y106.012 E6.75123
G1 X92.205 Y105.013 E6.80343
G1 X92.21 Y101.885 E6.95948
G1 X92.25 Y101.623 E6.9727
G1 X92.205 Y101.303 E6.98883
G1 X92.21 Y98.624 E7.12248
G1 X92.25 Y98.362 E7.13571
G1 X92.205 Y98.043 E7.15178
G1 X92.204 Y95.032 E7.302
G1 X92.506 Y94.07 E7.3523
G1 X92.763 Y93.598 E7.37911
G1 X93.434 Y92.818 E7.43045
G1 X94.371 Y92.323 E7.48332
G1 X95.071 Y92.209 E7.5187
G1 X98.043 Y92.204 E7.66697
G1 X98.372 Y92.251 E7.68355
G1 X98.697 Y92.205 E7.69993
G1 X101.376 Y92.21 E7.83358
G1 X101.638 Y92.25 E7.84681
G1 X101.96 Y92.205 E7.86303
G1 X104.878 Y92.21 E8.00861
G1 X105.592 Y92.359 E8.045
G1 X106.398 Y92.751 E8.08971
G1 X107.028 Y93.316 E8.13193
G1 X107.484 Y93.988 E8.17245
G1 X107.795 Y94.987 E8.22465
G1 X107.79 Y98.115 E8.3807
G1 X107.75 Y98.377 E8.39393
G1 X107.795 Y98.697 E8.41005
G1 X107.79 Y101.376 E8.5437
G1 X107.75 Y101.638 E8.55693
G1 X107.795 Y101.957 E8.573
G1 X107.796 Y104.968 E8.72322
G1 X107.494 Y105.93 E8.77352
G1 X107.237 Y106.402 E8.80034
G1 X106.566 Y107.182 E8.85167
G1 X105.629 Y107.677 E8.90454
G0 F2571.4 X105.5 Y107.292
G1 F1500 X104.864 Y107.396 E8.93669
G1 X101.887 Y107.39 E9.08521
G1 X101.635 Y107.345 E9.09798
G1 X101.319 Y107.395 E9.11394
G1 X98.625 Y107.39 E9.24835
G1 X98.367 Y107.344 E9.26142
G1 X98.041 Y107.395 E9.27789
G1 X95.166 Y107.39 E9.42132
G1 X94.538 Y107.259 E9.45333
G1 X93.827 Y106.913 E9.49278
G1 X93.276 Y106.419 E9.5297
G1 X92.88 Y105.836 E9.56486
G1 X92.605 Y104.952 E9.61104
G1 X92.61 Y101.886 E9.76401
G1 X92.656 Y101.628 E9.77708
G1 X92.605 Y101.304 E9.79345
G1 X92.61 Y98.625 E9.9271
G1 X92.656 Y98.367 E9.94018
G1 X92.605 Y98.043 E9.95654
G1 X92.604 Y95.092 E10.10377
G1 X92.861 Y94.254 E10.1475
G1 X93.066 Y93.859 E10.1697
G1 X93.687 Y93.137 E10.21721
G1 X94.5 Y92.708 E10.26307
G1 X95.136 Y92.604 E10.29522
G1 X98.043 Y92.604 E10.44025
G1 X98.372 Y92.656 E10.45687
G1 X98.696 Y92.605 E10.47323
G1 X101.375 Y92.61 E10.60689
G1 X101.633 Y92.656 E10.61997
G1 X101.959 Y92.605 E10.63643
G1 X104.834 Y92.61 E10.77986
G1 X105.462 Y92.741 E10.81187
G1 X106.173 Y93.087 E10.85132
G1 X106.724 Y93.581 E10.88824
G1 X107.12 Y94.164 E10.9234
G1 X107.395 Y95.048 E10.96959
G1 X107.39 Y98.114 E11.12255
G1 X107.344 Y98.372 E11.13562
G1 X107.395 Y98.696 E11.15199
G1 X107.39 Y101.375 E11.28564
G1 X107.344 Y101.633 E11.29872
G1 X107.395 Y101.957 E11.31508
G1 X107.396 Y104.908 E11.46231
G1 X107.139 Y105.746 E11.50604
G1 X106.934 Y106.141 E11.52824
G1 X106.313 Y106.863 E11.57575
G1 X105.5 Y107.292 E11.62161
G0 F2571.4 X105.37 Y106.908
G1 F1500 X104.864 Y106.996 E11.64724
G1 X101.957 Y106.996 E11.79227
G1 X101.635 Y106.939 E11.80858
G1 X101.319 Y106.995 E11.82459
G1 X98.696 Y106.996 E11.95545
G1 X98.368 Y106.937 E11.97208
G1 X98.042 Y106.995 E11.9886
G1 X95.21 Y106.99 E12.12989
G1 X94.668 Y106.877 E12.15751
G1 X94.052 Y106.577 E12.1917
G1 X93.58 Y106.154 E12.22332
G1 X93.244 Y105.66 E12.25312
G1 X93.005 Y104.891 E12.2933
G1 X93.004 Y101.957 E12.43968
G1 X93.063 Y101.629 E12.4563
G1 X93.005 Y101.304 E12.47277
G1 X93.004 Y98.696 E12.60289
G1 X93.063 Y98.368 E12.61951
G1 X93.005 Y98.043 E12.63598
G1 X93.004 Y95.15 E12.78032
G1 X93.243 Y94.371 E12.82097
G1 X93.369 Y94.12 E12.83498
G1 X93.94 Y93.456 E12.87867
G1 X94.63 Y93.092 E12.91759
G1 X95.136 Y93.004 E12.94322
G1 X98.043 Y93.004 E13.08825
G1 X98.371 Y93.063 E13.10487
G1 X98.696 Y93.005 E13.12134
G1 X101.304 Y93.004 E13.25146
G1 X101.632 Y93.063 E13.26808
G1 X101.958 Y93.005 E13.2846
G1 X104.79 Y93.01 E13.42589
G1 X105.332 Y93.123 E13.45351
G1 X105.948 Y93.423 E13.4877
G1 X106.42 Y93.846 E13.51932
G1 X106.756 Y94.34 E13.54913
G1 X106.995 Y95.109 E13.5893
G1 X106.996 Y98.043 E13.73568
G1 X106.937 Y98.371 E13.75231
G1 X106.995 Y98.696 E13.76878
G1 X106.996 Y101.304 E13.89889
G1 X106.937 Y101.632 E13.91552
G1 X106.995 Y101.957 E13.93199
G1 X106.996 Y104.85 E14.07632
G1 X106.757 Y105.629 E14.11697
G1 X106.631 Y105.88 E14.13098
G1 X106.06 Y106.544 E14.17467
G1 X105.37 Y106.908 E14.2136
G0 F2571.4 X105.238 Y106.525
G1 F1500 X104.864 Y106.596 E14.23259
G1 X101.957 Y106.596 E14.37762
G1 X101.635 Y106.531 E14.39401
G1 X101.319 Y106.595 E14.41009
G1 X98.696 Y106.596 E14.54095
G1 X98.369 Y106.529 E14.55761
G1 X98.043 Y106.595 E14.5742
G1 X95.254 Y106.59 E14.71335
G1 X94.798 Y106.495 E14.73658
G1 X94.277 Y106.241 E14.7655
G1 X93.847 Y105.856 E14.7943
G1 X93.608 Y105.484 E14.81636
G1 X93.405 Y104.83 E14.85052
G1 X93.404 Y101.957 E14.99385
G1 X93.471 Y101.629 E15.01056
G1 X93.405 Y101.304 E15.0271
G1 X93.404 Y98.696 E15.15721
G1 X93.471 Y98.368 E15.17392
G1 X93.405 Y98.043 E15.19046
G1 X93.404 Y95.208 E15.3319
G1 X93.625 Y94.488 E15.36948
G1 X93.704 Y94.344 E15.37767
G1 X94.193 Y93.775 E15.4151
G1 X94.762 Y93.475 E15.44719
G1 X95.136 Y93.404 E15.46618
G1 X98.043 Y93.404 E15.61121
G1 X98.37 Y93.471 E15.62787
G1 X98.696 Y93.405 E15.64446
G1 X101.304 Y93.404 E15.77458
G1 X101.631 Y93.471 E15.79123
G1 X101.957 Y93.405 E15.80782
G1 X104.746 Y93.41 E15.94697
G1 X105.202 Y93.505 E15.97021
G1 X105.723 Y93.759 E15.99912
G1 X106.153 Y94.144 E16.02792
G1 X106.392 Y94.516 E16.04998
G1 X106.595 Y95.17 E16.08414
G1 X106.596 Y98.043 E16.22748
G1 X106.529 Y98.369 E16.24408
G1 X106.595 Y98.696 E16.26072
G1 X106.596 Y101.304 E16.39084
G1 X106.529 Y101.63 E16.40744
G1 X106.595 Y101.957 E16.42408
G1 X106.596 Y104.792 E16.56552
G1 X106.375 Y105.512 E16.6031
G1 X106.296 Y105.656 E16.61129
G1 X105.807 Y106.225 E16.64872
G1 X105.238 Y106.525 E16.68081
G0 F2571.4 X105.154 Y106.134
G1 F1500 X104.864 Y106.196 E16.69561
G1 X101.957 Y106.196 E16.84064
G1 X101.633 Y106.12 E16.85724
G1 X101.319 Y106.195 E16.87335
G1 X98.696 Y106.196 E17.00421
G1 X98.37 Y106.118 E17.02093
G1 X98.043 Y106.195 E17.03769
G1 X95.326 Y106.196 E17.17325
G1 X94.963 Y106.13 E17.19165
G1 X94.538 Y105.938 E17.21492
G1 X94.174 Y105.625 E17.23887
G1 X93.99 Y105.365 E17.25476
G1 X93.805 Y104.769 E17.2859
G1 X93.804 Y101.957 E17.42619
G1 X93.882 Y101.63 E17.44296
G1 X93.805 Y101.304 E17.45967
G1 X93.804 Y98.696 E17.58978
G1 X93.882 Y98.369 E17.60656
G1 X93.805 Y98.043 E17.62327
G1 X93.804 Y95.266 E17.76181
G1 X94.007 Y94.605 E17.79631
G1 X94.446 Y94.094 E17.82992
G1 X94.846 Y93.866 E17.85289
G1 X95.136 Y93.804 E17.86769
G1 X98.043 Y93.804 E18.01272
G1 X98.369 Y93.882 E18.02944
G1 X98.696 Y93.805 E18.0462
G1 X101.304 Y93.804 E18.17631
G1 X101.63 Y93.882 E18.19304
G1 X101.957 Y93.805 E18.2098
G1 X104.674 Y93.804 E18.34535
G1 X105.037 Y93.87 E18.36376
G1 X105.462 Y94.062 E18.38702
G1 X105.826 Y94.375 E18.41097
G1 X106.01 Y94.635 E18.42686
G1 X106.195 Y95.231 E18.458
G1 X106.196 Y98.043 E18.59829
G1 X106.118 Y98.369 E18.61501
G1 X106.195 Y98.696 E18.63177
G1 X106.196 Y101.304 E18.76189
G1 X106.118 Y101.63 E18.77861
G1 X106.195 Y101.957 E18.79537
G1 X106.196 Y104.734 E18.93392
G1 X105.993 Y105.395 E18.96841
G1 X105.554 Y105.906 E19.00202
G1 X105.154 Y106.134 E19.02499
G0 F2571.4 X105.055 Y105.747
G1 F1500 X104.864 Y105.796 E19.03483
G1 X101.957 Y105.796 E19.17986
G1 X101.631 Y105.703 E19.19677
G1 X101.319 Y105.795 E19.213
G1 X98.696 Y105.796 E19.34387
G1 X98.369 Y105.702 E19.36084
G1 X98.043 Y105.795 E19.37775
G1 X95.326 Y105.796 E19.5133
G1 X95.043 Y105.738 E19.52772
G1 X94.713 Y105.578 E19.54601
G1 X94.445 Y105.331 E19.5642
G1 X94.354 Y105.188 E19.57265
G1 X94.205 Y104.708 E19.59773
G1 X94.204 Y101.957 E19.73498
G1 X94.298 Y101.63 E19.75195
G1 X94.205 Y101.304 E19.76886
G1 X94.204 Y98.696 E19.89898
G1 X94.298 Y98.369 E19.91595
G1 X94.205 Y98.043 E19.93287
G1 X94.204 Y95.325 E20.06847
G1 X94.365 Y94.802 E20.09577
G1 X94.659 Y94.433 E20.11931
G1 X94.945 Y94.253 E20.13617
G1 X95.136 Y94.204 E20.146
G1 X98.043 Y94.204 E20.29103
G1 X98.37 Y94.298 E20.30801
G1 X98.696 Y94.205 E20.32492
G1 X101.304 Y94.204 E20.45504
G1 X101.631 Y94.298 E20.47201
G1 X101.957 Y94.205 E20.48892
G1 X104.674 Y94.204 E20.62447
G1 X104.957 Y94.262 E20.63889
G1 X105.287 Y94.422 E20.65718
G1 X105.555 Y94.669 E20.67537
G1 X105.646 Y94.812 E20.68382
G1 X105.795 Y95.292 E20.7089
G1 X105.796 Y98.043 E20.84615
G1 X105.702 Y98.37 E20.86312
G1 X105.795 Y98.696 E20.88003
G1 X105.796 Y101.304 E21.01015
G1 X105.702 Y101.631 E21.02712
G1 X105.795 Y101.957 E21.04404
G1 X105.796 Y104.675 E21.17964
G1 X105.635 Y105.198 E21.20694
G1 X105.341 Y105.567 E21.23048
G1 X105.055 Y105.747 E21.24734
G0 F2571.4 X104.894 Y104.899
G1 F1500 X104.996 Y104.675 E21.25962
G1 X104.995 Y101.957 E21.39522
G1 X104.868 Y101.717 E21.40876
G1 X104.706 Y101.635 E21.41782
G1 X101.828 Y101.63 E21.56141
G1 X101.667 Y101.712 E21.57042
G1 X101.628 Y101.831 E21.57667
G1 X101.626 Y104.706 E21.7201
G1 X101.544 Y104.868 E21.72916
G1 X101.304 Y104.995 E21.74271
G1 X98.696 Y104.996 E21.87282
G1 X98.457 Y104.87 E21.8863
G1 X98.375 Y104.709 E21.89531
G1 X98.367 Y101.831 E22.0389
G1 X98.365 Y104.706 E22.18233
G1 X98.283 Y104.868 E22.19139
G1 X98.043 Y104.995 E22.20494
G1 X95.326 Y104.996 E22.34049
G1 X95.087 Y104.87 E22.35397
G1 X95.005 Y104.708 E22.36303
G1 X95.004 Y101.957 E22.50028
G1 X95.13 Y101.718 E22.51376
G1 X95.291 Y101.636 E22.52277
G1 X98.169 Y101.628 E22.66635
G1 X98.288 Y101.667 E22.6726
G1 X98.37 Y101.828 E22.68162
G1 X98.406 Y101.712 E22.68768
G1 X98.567 Y101.63 E22.69669
G1 X101.433 Y101.633 E22.83968
G1 X101.552 Y101.667 E22.84585
G1 X101.633 Y101.828 E22.85484
G1 X101.636 Y104.709 E22.99858
G1 X101.718 Y104.87 E23.00759
G1 X101.957 Y104.996 E23.02107
G1 X104.783 Y104.996 E23.16206
G1 X104.894 Y104.899 E23.16941
G1 F1500 E15.16941
G0 F2571.4 X105.459 Y104.857
G0 X105.458 Y101.741
G0 X104.87 Y101.543
G1 F1500 E23.16941
G1 X104.996 Y101.304 E23.18289
G1 X104.995 Y98.696 E23.31301
G1 X104.868 Y98.456 E23.32655
G1 X104.706 Y98.374 E23.33561
G1 X101.828 Y98.367 E23.4792
G1 X101.667 Y98.448 E23.48819
G1 X101.628 Y98.567 E23.49443
G1 X101.633 Y101.433 E23.63742
G1 X101.594 Y101.552 E23.64367
G1 X101.433 Y101.633 E23.65266
G1 X98.567 Y101.63 E23.79565
G1 X98.448 Y101.594 E23.80185
G1 X98.367 Y101.433 E23.81084
G1 X98.333 Y101.552 E23.81701
G1 X98.172 Y101.633 E23.82601
G1 X95.294 Y101.626 E23.96959
G1 X95.132 Y101.544 E23.97865
G1 X95.005 Y101.304 E23.9922
G1 X95.004 Y98.696 E24.12231
G1 X95.13 Y98.457 E24.13579
G1 X95.291 Y98.375 E24.1448
G1 X98.169 Y98.367 E24.28839
G1 X98.288 Y98.406 E24.29463
G1 X98.37 Y98.567 E24.30365
G1 X98.367 Y101.433 E24.44663
G1 X98.37 Y98.567 E24.58962
G1 X98.406 Y98.448 E24.59582
G1 X98.567 Y98.367 E24.60481
G1 X101.433 Y98.37 E24.7478
G1 X101.55 Y98.406 E24.75391
G1 X101.631 Y98.567 E24.7629
G1 X101.63 Y101.433 E24.90588
G1 X101.712 Y101.594 E24.9149
G1 X101.831 Y101.633 E24.92114
G1 X104.709 Y101.625 E25.06473
G1 X104.87 Y101.543 E25.07374
G1 F1500 E17.07374
G0 F2571.4 X105.371 Y101.631
G0 X105.458 Y98.48
G0 X104.87 Y98.282
G1 F1500 E25.07374
G1 X104.996 Y98.043 E25.08722
G1 X104.995 Y95.292 E25.22447
G1 X104.913 Y95.13 E25.23353
G1 X104.674 Y95.004 E25.24701
G1 X101.957 Y95.005 E25.38256
G1 X101.717 Y95.132 E25.39611
G1 X101.635 Y95.294 E25.40517
G1 X101.63 Y98.172 E25.54875
G1 X101.594 Y98.288 E25.55481
G1 X101.433 Y98.37 E25.56382
G1 X98.567 Y98.367 E25.70681
G1 X98.448 Y98.333 E25.71298
G1 X98.367 Y98.172 E25.72198
G1 X98.333 Y98.288 E25.72801
G1 X98.172 Y98.37 E25.73702
G1 X95.294 Y98.365 E25.8806
G1 X95.132 Y98.283 E25.88966
G1 X95.005 Y98.043 E25.90321
G1 X95.004 Y95.325 E26.03881
G1 X95.106 Y95.101 E26.05109
G1 X95.217 Y95.004 E26.05845
G1 X98.043 Y95.004 E26.19943
G1 X98.282 Y95.13 E26.21291
G1 X98.364 Y95.291 E26.22193
G1 X98.372 Y98.169 E26.36551
G1 X98.374 Y95.294 E26.50895
G1 X98.456 Y95.132 E26.51801
G1 X98.696 Y95.005 E26.53155
G1 X101.304 Y95.004 E26.66167
G1 X101.543 Y95.13 E26.67515
G1 X101.625 Y95.291 E26.68416
G1 X101.633 Y98.169 E26.82774
G1 X101.712 Y98.333 E26.83683
G1 X101.831 Y98.372 E26.84307
G1 X104.709 Y98.364 E26.98666
G1 X104.87 Y98.282 E26.99567
G0 F2571.4 X105.395 Y98.696
G1 F1500 X105.396 Y101.304 E27.12579
G1 X105.276 Y101.632 E27.14321
G1 X105.395 Y101.957 E27.16048
G1 X105.396 Y104.675 E27.29608
G1 X105.258 Y105.065 E27.31672
G1 X105.046 Y105.297 E27.3324
G1 X104.864 Y105.396 E27.34273
G1 X101.957 Y105.396 E27.48777
G1 X101.629 Y105.276 E27.50519
G1 X101.319 Y105.395 E27.52176
G1 X98.696 Y105.396 E27.65262
